X:1
T:Over the Rolling Sea
T:Over the Rolling Sea
T: R. B. Mahaffey
T:Elisha Albright Hoffman, 1891
T:Public Domain Courtesy of the Cyber Hymnal™
T:Public Domain Courtesy of the Cyber Hymnal™
C:R. B. Mahaffey
Z:Public Domain
Z:Courtesy of the Cyber Hymnal™
%%score ( 1 2 ) ( 3 4 )
L:1/8
Q:1/4=113
M:6/8
K:Bb
V:1 treble 
V:2 treble 
V:3 bass 
V:4 bass 
V:1
 [DF][B,D][DF] [EG]2 [DF] | [DB]3- [DB]2 z | [FA][FA][GB] [Ac][Ac][FA] | [GB][FA][=EG] F3 | %4
w: 1.~O- ver the roll- ing|sea, *|Ma- ny the voic- es ap-|peal- ing to me;|
w: 2.~O- ver the roll- ing|sea, *|Mil- lions are per- ish- ing,|Lord, with- out Thee;|
w: 3.~O- ver the roll- ing|sea, *|There is a mis- sion of|mer- cy for me;|
 ([DF][B,D])[DF] [EG]2 [DF] | ([DB][FA])[EG] [DF]3 | [DF]2 [FB] [FB]2 [DB] | (AG)[EA] [DB]3 | %8
w: Grop- * ing in the|dark- * ness they,|And to us for|light * they pray;|
w: We * are blessed with|Gos- * pel light,|While they grope in|hea- * then night,|
w: Souls * by years of|sin * de- praved|By my ef- forts|may * be saved,|
 [FA]2 [FA] [FA]2 [FB] | (cB)[EA] [DB]3 | [FA]2 [FA] [FA][FA][FB] | [Fc][FB][EA] [DB]3 | %12
w: O, their cry rings|pite- * ous- ly|O’er the waves of the|deep, roll- ing sea.|
w: And we send not,|O * the shame!|Help to them in the|Sav- ior’s dear name,|
w: If I help to|send * the light|To the peo- ple now|sha- dowed in night|
 [DF][B,D][DF] [EG]2 [DF] | [DB]3- [DB]2 z |"^riten." [DF][DF][DF] F2 [EF] | [DF]3- [DF]2 z || %16
w: O- ver the roll- ing|sea, *|O- ver the roll- ing|sea! *|
w: O- ver the roll- ing|sea, *|O- ver the roll- ing|sea! *|
w: O- ver the roll- ing|sea, *|O- ver the roll- ing|sea! *|
"^Refrain" [DF]3- [DF][B,D][EG] | [DF]3- [DF]2 z | [GB]3- [GB][FA][EG] | [DF]3- [DF]2 z | %20
w: ||||
w: O- * ver the|sea, *|call- * ing to|me, *|
w: ||||
 [FA][FA][GB] [Ac][Ac][FA] | [GB][FA][=EG] F3 | [DF]3- [DF][B,D][EG] | [DF]3- [DF]2 z | %24
w: ||||
w: There with- out Je- sus the|mil- lions I see;|O- * ver the|sea, *|
w: ||||
 [GB]3- [GB][FA][EG] | [DF]3- [DF]2 z | [DF][FB][FB] [DB][DB][DB] | [EA][EG][EA] [DB]4 |] %28
w: ||||
w: plead- * ing with|me, *|Shall I not an- swer the|pi- ti- ful plea?|
w: ||||
V:2
 x6 | x6 | x6 | x3 F3 | x6 | x6 | x6 | E2 x4 | x6 | F2 x4 | x6 | x6 | x6 | x6 | x3 (CD) x | x6 || %16
 x6 | x6 | x6 | x6 | x6 | x3 F3 | x6 | x6 | x6 | x6 | x6 | x7 |] %28
V:3
 [B,,B,][B,,F,][B,,B,] [B,,B,]2 [B,,B,] | [B,,F,]3- [B,,F,]2 z | [F,C][F,C][F,F] [F,F][F,F][F,C] | %3
 [C,C][C,C][C,B,] [F,A,]3 | (B,F,)[B,,B,] [B,,B,]2 [B,,B,] | (F,B,)[B,,B,] [B,,B,]3 | %6
 [B,,B,]2 [D,B,] [D,B,]2 [F,B,] | [F,C]2 [F,C] [B,,B,]3 | [F,C]2 [F,C] [F,C]2 [F,C] | %9
 (ED)[F,C] [B,,B,]3 | [F,C]2 [F,C] [F,C][F,C][F,D] | [F,E][F,D][F,C] [B,,B,]3 | %12
 [B,,B,][B,,F,][B,,B,] [B,,B,]2 [B,,B,] | [B,,F,]3- [B,,F,]2 z | %14
 [F,B,][F,B,][F,B,] (A,B,)[F,,F,C] | [B,,B,]3- [B,,B,]2 z || z6 | %17
 [B,,B,][B,,B,][B,,B,] [B,,B,]2 z | z6 | [B,,B,][B,,B,][B,,B,] [B,,B,]2 z | %20
 [F,C][F,C][F,F] [F,F][F,F][F,C] | [C,C][C,C][C,B,] [F,A,]3 | z6 | %23
 [B,,B,][B,,B,][B,,B,] [B,,B,]2 z | z6 | [B,,B,][B,,B,][B,,B,] [B,,B,]2 z | %26
 [B,,B,][D,B,][D,B,] [F,B,][F,B,][F,B,] | [F,C][F,C][F,C] [B,,B,]4 |] %28
V:4
 x6 | x6 | x6 | x6 | B,,2 x4 | B,,2 x4 | x6 | x6 | x6 | F,2 x4 | x6 | x6 | x6 | x6 | %14
 x3 [F,,F,]2 x | x6 || x6 | x6 | x6 | x6 | x6 | x6 | x6 | x6 | x6 | x6 | x6 | x7 |] %28

